X:1
T:Up tothe Rigs
M:2/2
L:1/4
K:G
 d| c B A/2A/2 G| B G E/2F/2 G| A D D G| E D B,| B/2B/2| c B/2B/2 AG/2-A/2|\
 B G E F/2G/2| A D D G| E D B,/2| B,/2B,/2 C/2| D E/2F/2 G2| E F/2G/2 A2|\
 G B/2c/2 d c| B A G||

